kora/actions/scalable/debug-step-into.svg

<svg xmlns="http://www.w3.org/2000/svg" width="16" height="16" version="1.1">
 <defs>
  <style id="current-color-scheme" type="text/css">
   .ColorScheme-Text { color:#dfdfdf; } .ColorScheme-Highlight { color:#4285f4; }
  </style>
 </defs>
 <path style="fill:currentColor" class="ColorScheme-Text" d="M 3,1 C 1,1 1,3 1,3 V 15 H 15 V 3 C 15,1 13,1 13,1 H 11 V 5 H 13 L 13.004,13 H 3 V 5 H 5 V 1 Z M 6,1 8,4 10,1 Z M 6.4277,6 C 5.3622,6 4.9238,6.3523 4.9238,7.2539 4.9238,7.2539 4.8994,7.8413 4.8926,8 4.8464,8.3689 4.7172,8.6777 4.3145,8.6777 H 4 V 9.3223 H 4.3145 C 4.903,9.3223 4.9238,9.9665 4.9238,10.523 4.9188,10.697 4.9374,10.892 4.9414,11 5.0247,11.712 5.4705,12 6.4277,12 V 11.408 C 5.9782,11.408 5.8292,11.29 5.7656,11 5.7319,10.884 5.7284,10.486 5.7148,10.295 5.7148,9.8795 5.5928,9.2602 4.9941,9.0039 5.4672,8.8013 5.6363,8.3756 5.6895,8 5.7134,7.8959 5.708,7.7777 5.7148,7.6973 5.7148,6.831 5.7175,6.5918 6.4277,6.5918 Z M 9.5723,6 V 6.5918 C 10.283,6.5918 10.299,6.8309 10.299,7.6973 10.306,7.7777 10.301,7.8959 10.324,8 10.377,8.3756 10.548,8.8013 11.021,9.0039 10.423,9.2603 10.299,9.8795 10.299,10.295 10.285,10.486 10.282,10.884 10.248,11 10.185,11.29 10.022,11.408 9.5723,11.408 V 12 C 10.53,12 10.991,11.712 11.074,11 11.078,10.892 11.097,10.697 11.092,10.523 11.092,9.9665 11.111,9.3223 11.699,9.3223 H 12 V 8.6777 H 11.699 C 11.296,8.6777 11.169,8.3689 11.123,8 11.116,7.8413 11.092,7.2539 11.092,7.2539 11.092,6.3522 10.638,6 9.5723,6 Z"/>
</svg>

<svg xmlns="http://www.w3.org/2000/svg" style="fill-rule:evenodd;clip-rule:evenodd;stroke-linejoin:round;stroke-miterlimit:2" width="100%" height="100%" version="1.1" viewBox="0 0 16 16" xml:space="preserve">
 <defs>
  <style id="current-color-scheme" type="text/css">
   .ColorScheme-Text { color:#dfdfdf; } .ColorScheme-Highlight { color:#4285f4; } .ColorScheme-NeutralText { color:#ff9800; } .ColorScheme-PositiveText { color:#4caf50; } .ColorScheme-NegativeText { color:#f44336; }
  </style>
 </defs>
 <path style="fill:currentColor;" class="ColorScheme-Text" d="M10.651,0.74l2.267,-0c1.293,-0 2.342,1.049 2.342,2.342l0,9.836c0,1.293 -1.049,2.342 -2.342,2.342l-9.836,0c-1.293,0 -2.342,-1.049 -2.342,-2.342l0,-9.836c0,-1.293 1.049,-2.342 2.342,-2.342l2.267,0l0,0.895l-2.187,0c-0.843,0 -1.527,0.684 -1.527,1.527l0,9.676c0,0.843 0.684,1.527 1.527,1.527l9.676,0c0.843,0 1.527,-0.684 1.527,-1.527l0,-9.676c0,-0.843 -0.684,-1.527 -1.527,-1.527l-2.187,0l-0,-0.895Zm-4.223,5.26c-1.066,0 -1.504,0.352 -1.504,1.254c-0,-0 -0.025,0.587 -0.031,0.746c-0.047,0.369 -0.176,0.678 -0.578,0.678l-0.315,-0l0,0.644l0.315,0c0.588,0 0.609,0.645 0.609,1.201c-0.005,0.174 0.013,0.369 0.017,0.477c0.084,0.712 0.53,1 1.487,1l-0,-0.592c-0.45,0 -0.599,-0.118 -0.662,-0.408c-0.034,-0.116 -0.038,-0.514 -0.051,-0.705c-0,-0.415 -0.122,-1.035 -0.721,-1.291c0.473,-0.203 0.642,-0.628 0.696,-1.004c0.023,-0.104 0.018,-0.222 0.025,-0.303c-0,-0.866 0.003,-1.105 0.713,-1.105l-0,-0.592Zm3.144,0l0,0.592c0.711,-0 0.727,0.239 0.727,1.105c0.007,0.081 0.002,0.199 0.025,0.303c0.053,0.376 0.224,0.801 0.697,1.004c-0.598,0.256 -0.722,0.876 -0.722,1.291c-0.014,0.191 -0.017,0.589 -0.051,0.705c-0.063,0.29 -0.226,0.408 -0.676,0.408l0,0.592c0.958,0 1.419,-0.288 1.502,-1c0.004,-0.108 0.023,-0.303 0.018,-0.477c-0,-0.556 0.019,-1.201 0.607,-1.201l0.301,0l-0,-0.644l-0.301,-0c-0.403,-0 -0.53,-0.309 -0.576,-0.678c-0.007,-0.159 -0.031,-0.746 -0.031,-0.746c0,-0.902 -0.454,-1.254 -1.52,-1.254Zm-3.572,-5.26l2,3l2,-3l-4,-0Z"/>
</svg>
